svgs/light/download.svg

<svg xmlns="http://www.w3.org/2000/svg" viewBox="0 0 512 512"><!--! Font Awesome Pro 6.3.0 by @fontawesome - https://fontawesome.com License - https://fontawesome.com/license (Commercial License) Copyright 2023 Fonticons, Inc. --><path d="M245.4 379.1C248.4 382.7 252.2 384 256 384s7.594-1.344 10.62-4.047l144-128c6.594-5.859 7.219-15.98 1.344-22.58c-5.875-6.625-16.06-7.234-22.59-1.328L272 332.4V16C272 7.156 264.8 0 256 0S240 7.156 240 16v316.4L122.6 228C116.1 222.1 105.9 222.8 100 229.4C94.16 235.1 94.78 246.1 101.4 251.1L245.4 379.1zM448 320h-48c-8.836 0-16 7.162-16 16c0 8.836 7.164 16 16 16H448c17.67 0 32 14.33 32 32v64c0 17.67-14.33 32-32 32H64c-17.67 0-32-14.33-32-32v-64c0-17.67 14.33-32 32-32h48C120.8 352 128 344.8 128 336C128 327.2 120.8 320 112 320H64c-35.35 0-64 28.65-64 64v64c0 35.35 28.65 64 64 64h384c35.35 0 64-28.65 64-64v-64C512 348.7 483.3 320 448 320zM440 416c0-13.25-10.75-24-24-24s-24 10.75-24 24s10.75 24 24 24S440 429.3 440 416z"/></svg>

<svg xmlns="http://www.w3.org/2000/svg" viewBox="0 0 512 512"><!-- Font Awesome Pro 6.0.0-alpha2 by @fontawesome - https://fontawesome.com License - https://fontawesome.com/license (Commercial License) --><path d="M245.375 379.953C248.406 382.656 252.188 384 256 384S263.594 382.656 266.625 379.953L410.625 251.953C417.219 246.094 417.844 235.969 411.969 229.375C406.094 222.75 395.906 222.141 389.375 228.047L272 332.373V16C272 7.156 264.844 0 256 0S240 7.156 240 16V332.373L122.625 228.047C116.062 222.141 105.906 222.75 100.031 229.375C94.156 235.969 94.781 246.094 101.375 251.953L245.375 379.953ZM448 320H400C391.164 320 384 327.162 384 336C384 344.836 391.164 352 400 352H448C465.674 352 480 366.326 480 384V448C480 465.672 465.674 480 448 480H64C46.326 480 32 465.672 32 448V384C32 366.326 46.326 352 64 352H112C120.836 352 128 344.836 128 336C128 327.162 120.836 320 112 320H64C28.654 320 0 348.652 0 384V448C0 483.346 28.654 512 64 512H448C483.346 512 512 483.346 512 448V384C512 348.652 483.346 320 448 320ZM440 416C440 402.75 429.25 392 416 392S392 402.75 392 416S402.75 440 416 440S440 429.25 440 416Z"/></svg>
